X: 10378
T: Donald Angus Beaton
R: strathspey
M: 4/4
K: Amixolydian
F|E<AA>c B>AB<c|A/A/A A>g f>ef<a|e<cA>c B>AB<c|A<GF>E F<AA:|
|:d|c<ee>c B>AA<d|c<ee>c e>fg>b|a<fe>c B>AB<c|A<GF>E F<AA:|

